X: 30275
T: Old Lord Gordon's
R: reel
M: 4/4
K: Dmajor
d3B|ADAD ADBD|ADAD A z FA|B~E2 BEcE|B~E2 BAFA|
dcdf ecdB|~A3F ABdg|faec dABG|EFGA BcdB|
ADAD ADBD|ADAD Az3|F/A/Bz2 F/A/cz2|F/A/dz2 BAFA|
dgfd ecdA|~A2FA Dz (3ABc|dBcA BFAF|EFGA Bcdg|
f/z/Adg f/z/Adg|f/z/Adg faaf|g2ef gfge|
dfed BAFA|dcdf ecdB|~A3F ABdg|faec dABG|
EFGA Bcdz|g~f2d g~f2d|f/z/Adg faaf|g2ef ~g3a|
b2ab gega|b2c' d'c'd'z|fedB ABdg|fdec d4|

